X:177
T:Alec Dan MacIsaac's
O:england
M:4/4
L:1/8
R:Strathspey
K:Am
G|A>A A<B G>G G<B|A>Bc>A d/c/B/A/ G>B|A>A A<B G>A B<d|c>AB>G A>G E:|
|:a|g>e e<g e>d B<g|e>de>g a>b a<e|1 g<ee>g G>A B<d|c>AB>G A>G E:|2 g<be
<g G>A B<d|
c>AB>G A>G E:|


